X:1
T:Virgo prudentissima
T:Virgo prudentissima
T:Arnold von Bruck
T:Source : Trium vocum cantiones---Nürnberg---J.Petreius---1541. Editor: André Vierendeels (25/04/16).
T:Notes : Original clefs : C1, C3 (from m 17 to m 47 C2), C4 Editorial accidentals above the staff Original note values have been halved m 73 in T 1 : first "G" not in original print Square brackets indicate ligatures See also the "Secunda pars: Tota formosa" by the same cpmposer
T:Prima pars
T:©
T:©
T:©
T:©
T:©
T:©
T:©
C:Arnold von Bruck
Z:©
%%score [ 1 [ 2 3 ] ]
L:1/8
Q:1/4=106
M:2/2
K:F
V:1 treble nm="Soprano" snm="S"
V:2 treble-8 nm="Tenor 1" snm="T 1"
V:3 treble-8 nm="Tenor 2" snm="T 2"
V:1
 G8 | B8 | G4 F4 | B4 c4 | d4 z2 G2 | B8 | G4 F4 | B4 c4 | d4 G2 A2- | A2 B4 AG | F4 z2 D2 | %11
w: Vir-|go|pru- den-|tis- si-|ma, vir-|go|pru- den-|tis- si-|ma, pru- den-|* tis- si- *|ma, vir-|
 F4 D4 | C4 F4 | G4 A4 | z2 d4 c2 | B2 AG AB c2- | cA B2 c4- | c2 d4 e2- | ed d4 c2 | d8 | z8 | %21
w: go pru-|den- tis-|si- ma,|pru- den-|tis- * * * * *||||ma,,||
 z4 d4- | d4 c4 | B3 c d2 B2- | B2 AG A4 | G8 | z8 | z8 | z4 d4- | d4 c4 | B3 c d2 B2- | B2 AG A4 | %32
w: quo|_ pro-|gre- * * *|* * * de-|ris,|||quo|_ pro-|gre- * * de-||
 G4 z4 | F8 | B8 | z4 B4 | B3 c d2 e2- | e2 dc B2 d2- | dc c4 B2 | c8 | z8 | z8 | z8 | z8 | %44
w: ris,|qua-|si|au-|ro- * * *|||ra,|||||
[M:6/4] z4 B8 | A4 B4 G4 | A4 G8 | z12 | F8 E4 | F4 D4 E4 | D8 z4 | z12 | B8 A4 | B4 G4 A4 | %54
w: val-|de ru- *|ti- lans,||val- de|ru- * ti-|lans,||val- de|ru- * ti-|
 G8 z4 | F4 G4 E4 | F4 D4 z4 | B8 A4 | B4 G4 A4 | G6 FE F4 |[M:2/2] G8 | z4 B4 | c4 A4 | %63
w: lans,|fi- li- a|Si- on,|val- de|ru- * ti-||lans,|fi-|li- a|
 B4 G2 A2- | AGFE D4 | z2 B2 c4 | A4 B4 | G4 z4 | F4 G2 E2 | F2 ED E4 | D4 z2 F2 | G4 E2 F2 | %72
w: Si- * *|* * * * on,|fi- li-|a Si-|on,|fi- li- a|Si- * * *|on, fi-|li- a Si-|
 D2 G4 F2 | G2 z2 d3 c | BA G2 c3 B | AGFE D2 B2- | BAGF G2 A2- | AG G4 F2 | G8 |] %79
w: |on, Si- *|||||on.|
V:2
 z8 | G8 | B8 | G4 F4 | B4 c4 | d8 | z4 d4- | d4 f4 | d4 c4 | f4 g4 | a8 | z2 d2 f4 | z4 A4 | %13
w: |Vir-|go|pru- den-|tis- si-|ma,|vir-|* go|pru- den-|tis- si|ma,|vir- go,|vir-|
 c4 z4 | d4 f4 | d4 c4 | f4 g4 | a4 b2 g2- | gfed e4 | d4 z4 | a8 | g4 f3 e | d2 g4 f2 | %23
w: go,|vir- go|pru- den-|tis- si|ma, _ _|_ _ _ _ _||quo|pro- gre- *||
 g3 a b2 g2- | g2 fe f4 | g4 z4 | d8- | d4 c4 | B3 c d2 B2- | B2 AG A4 | G4 z4 | F8 | B8 | z8 | %34
w: * * * de-||ris,|quo|_ pro-|gre- * * *|* * * de-|ris,|qua-|si||
 z4 B4 |"^b" B3 c d2 e2- | e2 dc B2 c2 | GABc defe/f/ | g2 e2 d4 | c4 z4 | f4 f3 g | a2 b4 ag | %42
w: au-|ro- * * *||||ra,|au- ro- *||
"^#" f2 g4 f2 | g8 |[M:6/4] z12 | z4 B8 | A4 B4 G4 | A4 G8 | z4 d4 c4 | d8 z4 | f8 e4 | f4 d4 e4 | %52
w: |ra,||val-|de ru- *|ti- lans,|ru- ti-|lans,|val de|ru _ ti|
 d4 z4 f4 | g4 e4 f4 | d4 z4 c4 | d4 B4 c4 | d2 e2 f2 g2 e4 | d8 z4 | B8 A4 | B6 AG A4 | %60
w: lans, fi|li a Si|on, fi|li a Si-||on,|val- de|ru- * * ti-|
[M:2/2] G4 z4 | d4 g4 | e4 f4 | d4 z4 | z4 f4 | g4 e4 | f4 d2 g2 | gfed c2 f2- | fe d4 c2 | d4 z4 | %70
w: lans,|fi- li-|a Si-|on,|fi-|li- a|Si- * *|||on,|
 z8 | B4 c2 A2 | GBAG A4 | G4 z2 g2- | gfed e2 c2- | c2 f3 e dc | B2 c3 B AG | F2 B2 A4 | G8 |] %79
w: |fi- li- a|Si- * * * *|on, Si-|||||on.|
V:3
 z8 | z8 | z8 | z8 | z8 | G8 | B8 | G4 F4 | B4 c4 | dcBA G2 FE | D8 | z4 D4 | F4 D4 | C4 F4 | %14
w: |||||Vir-|go|pru- den-|tis- si|ma, _ _ _ _ _ _|_|vir-|go pru-|den- tis-|
 G4 A4 | z2 D2 F4 | D4 C4 | F4 G4 | A8 | z4 d4- | d4 c4 | B3 c d2 B2- | B2 AG A4 | G8 | z4 d4- | %25
w: si- ma,|vir- go|pru- den-|tis- si-|ma,|quo|_ pro-|gre- * * de-||ris,|quo|
 d4 c4 | B3 c d2 B2- | B2 AG A4 | G4 z4 | F8 | B8 |"^b" z4 c4 | d4 G4 | z2 B2 B3 c |"^b" d2 e4 dc | %35
w: _ pro-|gre- * * *|* * * de-|ris,|qua-|si|au-|ro- ra,|au- ro- *||
 d4 G4- | G4 z4 | z8 | z8 | F4 F3 G | A2 B4 AG | F2 GA Bc d2- | d2 cB AG A2 | G8 |[M:6/4] z4 G8 | %45
w: * ra,|_|||au- ro- *||||ra,||
"^b" F4 G4 E4 | F4 G4 z4 | F8 E4 | F4 D4 E4 | D2 E2 F2 D2 A4 | D2 E2 F2 G2 A4 | D4 B4 A4 | %52
w: ||val- de|ru- * ti-|lans, _ _ _ _|ru- * * * ti-|lans, val- de|
 B4 G4 A4 | G4 z4 F4 | G4 E4 F4 | D4 z4 z4 | B8 A4 | B4 G4 A4 | G6 FE F4 | G4 D8 |[M:2/2] G8- | %61
w: ru- * ti-|lans, fi-|li- a Si-|on,|val- de|ru- * ti-|||lans,|
 G8 | z8 | B4 c4 | A4 B4 | G4 z4 | F4 G4 | E4 F4 | D4 z4 | B4 c2 A2 | B2 AG A4 | G4 C2 F2 | %72
w: _||fi- li-|a Si-|on,|fi- li-|a Si-|on,|fi- li- a|Si- * * *|on, [fi- li-|
 G2 E2 D4 |"^#" z2 d3 c BA | G2 c3 B AG | FE D2 B3 A | GFED C4 | D8 | G8 |] %79
w: a Si- on,]|Si- * * *|||||on.|

